app/assets/images/payment_icons/astrapay.svg

<svg width="38" height="24" viewBox="0 0 38 24" fill="none" xmlns="http://www.w3.org/2000/svg" aria-labelledby="pi-astrapay">
<title id="pi-astrapay">AstraPay</title>
<path fill="#000" opacity=".07" d="M35 0H3C1.3 0 0 1.3 0 3v18c0 1.7 1.4 3 3 3h32c1.7 0 3-1.3 3-3V3c0-1.7-1.4-3-3-3z"/>
<path fill="#fff" d="M35 1c1.1 0 2 .9 2 2v18c0 1.1-.9 2-2 2H3c-1.1 0-2-.9-2-2V3c0-1.1.9-2 2-2h32"/>
<g clip-path="url(#pi-astrapay-clip0_4_341)">
<path opacity="0.07" d="M35 0H3C1.3 0 0 1.3 0 3V21C0 22.7 1.4 24 3 24H35C36.7 24 38 22.7 38 21V3C38 1.3 36.6 0 35 0Z" fill="black"/>
<path d="M35.8889 0C37.05 0 38 0.981818 38 2.18182V21.8182C38 23.0182 37.05 24 35.8889 24H2.11111C0.95 24 0 23.0182 0 21.8182V2.18182C0 0.981818 0.95 0 2.11111 0H35.8889Z" fill="white"/>
<path d="M20.1187 0.0522461C20.2197 0.104376 20.2895 0.175817 20.3739 0.205558C21.0067 0.428638 21.5747 0.770218 21.9971 1.28718C22.3402 1.70707 22.6119 2.18911 22.8912 2.65807C23.3752 3.47062 23.8421 4.29349 24.3133 5.11369C24.7386 5.85402 25.161 6.5961 25.5832 7.33827C26.0638 8.1833 26.5437 9.02877 27.0222 9.87507C27.3066 10.3781 27.4657 10.9126 27.5308 11.4948C27.618 12.2745 27.4719 13.0059 27.1301 13.6802C26.5113 14.9009 25.5442 15.6948 24.1594 15.8971C23.9994 15.9204 23.8376 15.9454 23.6766 15.9456C20.5349 15.9484 17.3931 15.9541 14.2515 15.9435C13.388 15.9406 12.6368 15.6024 11.963 15.0644C11.1585 14.422 10.6983 13.572 10.5014 12.5815C10.348 11.8099 10.4127 11.0254 10.7666 10.3227C11.245 9.37285 11.797 8.46047 12.3202 7.53364C12.798 6.68714 13.2771 5.84132 13.7602 4.99789C14.2436 4.15402 14.725 3.30874 15.2227 2.47344C15.475 2.04998 15.7208 1.61089 16.0426 1.24387C16.4744 0.751569 17.018 0.388849 17.6601 0.20245C17.7382 0.179788 17.8077 0.127344 17.8693 0.070474C18.603 0.052246 19.3487 0.052246 20.1187 0.0522461ZM23.91 11.9156C24.1272 11.2738 24.0434 10.6556 23.7182 10.0794C22.9249 8.67413 22.1336 7.26715 21.3069 5.88176C20.2525 4.11463 17.7563 4.12546 16.7073 5.89739C15.8855 7.2855 15.0866 8.68758 14.2955 10.0937C13.689 11.1719 13.9496 12.4612 14.8862 13.1597C15.8577 13.8844 17.1648 13.7762 18.0296 12.8973C18.2182 12.7055 18.3962 12.503 18.5869 12.3134C18.8501 12.0516 19.1727 12.052 19.4371 12.3131C19.6037 12.4777 19.7578 12.6551 19.9224 12.8218C21.1699 14.0847 23.2696 13.625 23.91 11.9156Z" fill="#0045E5"/>
<path d="M7 22.2984C7.03486 22.2455 7.08849 22.2236 7.10185 22.1869C7.45674 21.2116 7.8029 20.2331 8.16545 19.2607C8.20512 19.1543 8.32869 19.0141 8.42408 19.0051C8.99914 18.951 9.19871 18.9139 9.39064 19.5056C9.72679 20.5418 10.0857 21.5706 10.4332 22.6031C10.5201 22.8612 10.4529 22.9301 10.1863 22.9593C9.89022 22.9917 9.74136 22.8749 9.67335 22.5924C9.62225 22.38 9.538 22.1757 9.46808 21.9665C8.96364 21.9665 8.47171 21.9665 7.95461 21.9665C7.8968 22.1627 7.82994 22.3619 7.77996 22.5652C7.68068 22.9691 7.42856 23.0798 7.02041 22.8915C7 22.7087 7 22.5156 7 22.2984ZM9.02596 20.5224C8.9322 20.2424 8.83844 19.9624 8.72453 19.6223C8.51522 20.2258 8.32763 20.7667 8.1348 21.3227C8.53064 21.3227 8.89886 21.3227 9.29363 21.3227C9.20207 21.0585 9.11644 20.8114 9.02596 20.5224Z" fill="#0045E5"/>
<path d="M28.6347 24.0521C28.4515 23.7952 28.6202 23.6523 28.7805 23.48C28.9982 23.2459 29.1836 22.9812 29.3171 22.8126C29.0911 22.3951 28.8844 22.0746 28.7384 21.7282C28.5373 21.2508 28.3804 20.7545 28.2083 20.2649C28.1579 20.1216 28.081 19.9683 28.2896 19.8729C28.5153 19.7697 28.75 19.8139 28.8568 20.0016C28.9107 20.0963 28.9359 20.2074 28.9739 20.3112C29.1922 20.9079 29.4104 21.5047 29.6938 22.1037C29.8334 21.7113 29.9858 21.323 30.1082 20.9253C30.2007 20.6251 30.2423 20.3093 30.3304 20.0075C30.391 19.7999 30.5828 19.8081 30.7523 19.8278C30.8242 19.8362 30.8909 19.8889 30.9801 19.9214C31.0002 20.1666 31.0002 20.4118 30.9813 20.6702C30.9403 20.7267 30.9113 20.7679 30.8974 20.8137C30.6251 21.7125 30.3027 22.59 29.7999 23.3885C29.6564 23.6164 29.4924 23.8313 29.3379 24.0521C29.1115 24.0521 28.8852 24.0521 28.6347 24.0521Z" fill="#0045E5"/>
<path d="M22.6374 21.7132C22.6367 22.0513 22.626 22.365 22.6403 22.6775C22.6496 22.882 22.5677 22.9598 22.3751 22.9549C22.1716 22.9498 21.9394 22.994 21.9119 22.6897C21.8994 22.5516 21.9093 22.4115 21.9093 22.2723C21.9093 21.3327 21.9165 20.393 21.9039 19.4536C21.901 19.2389 21.9583 19.0843 22.1605 19.0389C22.8499 18.8841 23.5483 18.7893 24.1966 19.1692C24.79 19.5169 24.8243 19.9769 24.7507 20.5529C24.6832 21.0809 24.2401 21.4687 23.7086 21.5387C23.4214 21.5766 23.1289 21.5722 22.8397 21.5985C22.7704 21.6048 22.7051 21.6571 22.6374 21.7132ZM22.6366 19.9005C22.6366 20.2526 22.6366 20.6046 22.6366 21.0208C23.0173 20.9626 23.3593 20.9431 23.6812 20.8519C23.9918 20.7639 24.0439 20.473 24.0379 20.1842C24.0323 19.9104 23.8773 19.6686 23.6092 19.6174C23.297 19.5578 22.9729 19.5608 22.6366 19.5353C22.6366 19.6782 22.6366 19.764 22.6366 19.9005Z" fill="#0045E5"/>
<path d="M25.964 21.1234C26.1557 21.1054 26.3252 21.0914 26.4937 21.0698C26.6537 21.0493 26.8128 21.0208 26.9739 20.9955C27.0098 20.5794 26.6994 20.3618 26.3758 20.3967C26.1083 20.4256 25.8463 20.5034 25.5795 20.5437C25.487 20.5576 25.3088 20.5373 25.3042 20.5097C25.2809 20.3711 25.2491 20.1407 25.3175 20.0972C25.5243 19.9656 25.7709 19.853 26.0113 19.8295C26.3983 19.7916 26.7956 19.7745 27.1671 19.9722C27.5056 20.1524 27.6647 20.4319 27.6726 20.7996C27.6836 21.3134 27.6712 21.8277 27.6774 22.3417C27.68 22.558 27.5887 22.715 27.402 22.7977C26.7915 23.0682 26.1677 23.1071 25.5442 22.8465C25.2353 22.7174 25.0075 22.3302 25.0309 22.0236C25.0652 21.5749 25.3121 21.2707 25.719 21.1757C25.793 21.1584 25.8671 21.1412 25.964 21.1234ZM25.8868 21.7494C25.6721 21.983 25.6993 22.2869 25.9893 22.3517C26.2801 22.4167 26.5994 22.3574 26.9056 22.3407C26.9391 22.3389 26.9934 22.26 26.9953 22.215C27.0046 21.9942 26.9995 21.7728 26.9995 21.5169C26.6109 21.5898 26.2638 21.6549 25.8868 21.7494Z" fill="#0045E5"/>
<path d="M19.5725 19.8172C19.9943 19.7962 20.3586 19.8743 20.6628 20.1555C20.8452 20.3241 20.9231 20.5304 20.9225 20.7747C20.9213 21.2971 20.9098 21.8199 20.9275 22.3417C20.9361 22.5955 20.8088 22.733 20.6121 22.8186C20.1026 23.0401 19.5705 23.0751 19.0344 22.9424C18.5643 22.826 18.2649 22.4532 18.2741 22.0337C18.2847 21.5517 18.6076 21.2081 19.1468 21.1272C19.5079 21.073 19.8722 21.0399 20.2348 20.9974C20.2093 20.3271 19.7825 20.3539 19.2118 20.4192C19.097 20.4324 18.9888 20.4977 18.8753 20.531C18.7386 20.5712 18.5854 20.6873 18.5046 20.4457C18.4405 20.2542 18.5114 20.0327 18.7044 19.981C18.9804 19.907 19.2661 19.87 19.5725 19.8172ZM19.0007 21.9984C18.9867 22.1876 19.0727 22.3502 19.2478 22.3653C19.5454 22.3909 19.8483 22.3617 20.1482 22.3435C20.1833 22.3414 20.2399 22.2637 20.2418 22.2192C20.2515 21.9971 20.2462 21.7744 20.2462 21.5573C20.006 21.5719 19.796 21.558 19.5997 21.6036C19.3722 21.6564 19.0893 21.6486 19.0007 21.9984Z" fill="#0045E5"/>
<path d="M11.492 19.9331C11.997 19.7496 12.4834 19.7756 12.9631 19.9434C13.1634 20.0135 13.268 20.1776 13.2256 20.3908C13.195 20.5453 13.1256 20.6357 12.9148 20.5585C12.6569 20.4639 12.3737 20.4267 12.098 20.3981C11.8937 20.3769 11.6906 20.4909 11.6966 20.6968C11.6997 20.8074 11.895 20.9489 12.0327 21.0119C12.3453 21.1548 12.6804 21.2468 12.9979 21.38C13.3298 21.5193 13.3674 21.8517 13.3696 22.139C13.3721 22.467 13.1981 22.7495 12.8697 22.8726C12.3207 23.0786 11.7664 23.0798 11.2284 22.833C10.8809 22.6736 10.8537 22.3958 11.0808 22.1813C11.4661 22.2718 11.8042 22.3647 12.1481 22.4236C12.2514 22.4413 12.385 22.386 12.4783 22.3239C12.5589 22.2702 12.6528 22.1566 12.6482 22.0747C12.6428 21.978 12.5581 21.839 12.4724 21.8022C12.1864 21.6797 11.8861 21.5894 11.5882 21.497C11.2717 21.3989 11.0322 21.2307 11.0017 20.8707C10.9673 20.4659 11.0527 20.1159 11.492 19.9331Z" fill="#0045E5"/>
<path d="M14.5325 21.2293C14.5325 21.4817 14.5318 21.7082 14.5327 21.9346C14.5343 22.3302 14.7825 22.5111 15.16 22.4074C15.2933 22.3708 15.4653 22.2002 15.559 22.4621C15.6476 22.7095 15.5627 22.8662 15.2884 22.9523C14.8535 23.0887 14.436 23.014 14.0688 22.7636C13.8182 22.5927 13.8189 22.2745 13.813 22.0105C13.7921 21.0879 13.8061 20.1645 13.8033 19.2414C13.8029 19.1038 13.844 19.0387 13.9941 19.0297C14.4622 19.0016 14.5325 19.0622 14.5325 19.5386C14.5325 19.6754 14.5325 19.8122 14.5325 19.9739C14.8069 19.9739 15.0557 19.9769 15.3044 19.9728C15.4536 19.9704 15.5751 19.9693 15.5766 20.1826C15.5781 20.381 15.545 20.5343 15.3204 20.5452C15.0709 20.5574 14.8204 20.548 14.5325 20.548C14.5325 20.7757 14.5325 20.9895 14.5325 21.2293Z" fill="#0045E5"/>
<path d="M16.1005 20.3191C16.2735 20.175 16.4238 19.9866 16.6089 19.9409C16.952 19.8561 17.3164 19.8199 17.6704 19.8283C18.0257 19.8368 18.1146 20.0888 17.9632 20.3631C17.5933 20.4119 17.2714 20.4546 16.9494 20.4965C16.8015 20.5158 16.7615 20.601 16.7631 20.7463C16.7702 21.3726 16.7676 21.9989 16.7651 22.6252C16.7645 22.7811 16.8217 22.9655 16.5428 22.959C16.1828 22.9507 16.0451 22.8748 16.0409 22.597C16.0337 22.1186 16.0326 21.64 16.0412 21.1617C16.0462 20.8873 16.0753 20.6133 16.1005 20.3191Z" fill="#0045E5"/>
<path d="M23.9017 11.9346C23.2697 13.6251 21.17 14.0848 19.9226 12.8218C19.7579 12.6552 19.6038 12.4778 19.4372 12.3132C19.1728 12.0521 18.8502 12.0517 18.587 12.3135C18.3963 12.5031 18.2183 12.7056 18.0297 12.8973C17.1649 13.7763 15.8578 13.8845 14.8863 13.1598C13.9497 12.4613 13.6891 11.172 14.2956 10.0938C15.0867 8.68767 15.8856 7.28559 16.7074 5.89748C17.7564 4.12555 20.2526 4.11472 21.307 5.88185C22.1337 7.26725 22.925 8.67422 23.7183 10.0795C24.0435 10.6557 24.1273 11.2739 23.9017 11.9346ZM20.4635 6.71025C20.4119 6.61979 20.3644 6.52669 20.3082 6.43927C19.689 5.47598 18.3065 5.48684 17.7009 6.46035C17.6001 6.62234 17.5092 6.79056 17.4144 6.9563C16.7078 8.19201 15.9918 9.42247 15.2989 10.6659C14.9612 11.2717 15.0964 11.8856 15.5988 12.2478C16.1166 12.6211 16.7813 12.5433 17.2427 12.057C17.422 11.8679 17.6017 11.6791 17.785 11.4939C18.4656 10.806 19.5486 10.8029 20.231 11.487C20.3781 11.6345 20.5215 11.786 20.6638 11.9383C21.1598 12.4691 21.8425 12.5466 22.3874 12.1325C22.9328 11.7179 23.0191 11.1595 22.6366 10.4915C21.9205 9.24099 21.2024 7.99158 20.4635 6.71025Z" fill="#EBE60B"/>
<path d="M20.4741 6.72615C21.2022 7.99176 21.9203 9.24117 22.6365 10.4917C23.019 11.1597 22.9327 11.7181 22.3873 12.1326C21.8424 12.5468 21.1597 12.4693 20.6636 11.9385C20.5213 11.7862 20.378 11.6347 20.2308 11.4872C19.5485 10.8031 18.4655 10.8062 17.7848 11.4941C17.6016 11.6793 17.4219 11.8681 17.2425 12.0571C16.7812 12.5435 16.1164 12.6212 15.5987 12.248C15.0963 11.8858 14.9611 11.2719 15.2987 10.6661C15.9917 9.42264 16.7077 8.19218 17.4143 6.95647C17.5091 6.79073 17.6 6.62251 17.7008 6.46053C18.3064 5.48701 19.6889 5.47615 20.3081 6.43944C20.3643 6.52687 20.4118 6.61996 20.4741 6.72615Z" fill="#0146E4"/>
</g>
<defs>
<clipPath id="pi-astrapay-clip0_4_341">
<rect width="38" height="24" fill="white"/>
</clipPath>
</defs>
</svg>

<svg role="img" width="38" height="24" aria-labelledby="pi-astrapay" viewBox="0 0 38 24" fill="none" xmlns="http://www.w3.org/2000/svg"><title id="pi-astrapay">AstraPay</title><path fill="#fff" d="M0 0h38v24H0z"/><g clip-path="url(#pi-astrapay-clip0_0_1)"><path d="M20.119.052c.1.052.17.124.255.154.633.223 1.2.564 1.623 1.081.343.42.615.902.894 1.371.484.813.951 1.635 1.422 2.456a1155.779 1155.779 0 0 1 2.709 4.761c.285.503.444 1.038.509 1.62a3.814 3.814 0 0 1-.4 2.185c-.62 1.22-1.587 2.015-2.972 2.217-.16.023-.321.048-.482.049-3.142.002-6.284.008-9.425-.002-.864-.003-1.615-.342-2.289-.88-.804-.642-1.265-1.492-1.462-2.482-.153-.772-.088-1.557.266-2.26.478-.95 1.03-1.862 1.553-2.788.478-.847.957-1.693 1.44-2.536.484-.844.965-1.69 1.463-2.525.252-.423.498-.862.82-1.23A3.394 3.394 0 0 1 17.66.204a.547.547 0 0 0 .21-.133c.733-.018 1.479-.018 2.249-.018Zm3.791 11.864c.217-.642.133-1.26-.192-1.837-.793-1.405-1.584-2.812-2.411-4.197a2.656 2.656 0 0 0-4.6.015c-.822 1.388-1.62 2.79-2.412 4.197-.606 1.078-.345 2.367.591 3.066.972.724 2.279.616 3.144-.263.188-.191.366-.394.557-.584.263-.261.586-.261.85 0 .167.165.32.342.485.509 1.248 1.263 3.348.803 3.988-.906ZM7 22.298c.035-.052.088-.074.102-.111.355-.975.7-1.954 1.063-2.926.04-.107.164-.247.26-.256.574-.054.774-.091.966.5.336 1.037.695 2.066 1.042 3.098.087.258.02.327-.247.356-.296.033-.445-.084-.513-.367-.05-.212-.135-.416-.205-.625H7.955c-.058.196-.125.395-.175.598-.1.404-.351.515-.76.326C7 22.71 7 22.517 7 22.299Zm2.026-1.776-.301-.9-.59 1.7h1.159a26.69 26.69 0 0 1-.268-.8ZM28.635 24.052c-.184-.257-.015-.4.145-.572.218-.234.404-.499.537-.667-.226-.418-.433-.738-.579-1.085-.2-.477-.358-.974-.53-1.463-.05-.143-.127-.297.082-.392.225-.103.46-.06.567.129.054.094.079.205.117.31.218.596.436 1.193.72 1.792.14-.393.292-.781.414-1.179.093-.3.134-.616.222-.918.061-.207.253-.199.422-.18.072.01.139.062.228.094.02.246.02.49.001.75a.51.51 0 0 0-.084.143c-.272.898-.594 1.776-1.097 2.575-.144.227-.308.442-.462.663h-.703ZM22.637 21.713c0 .338-.011.652.003.964.01.205-.072.283-.265.278-.203-.005-.436.039-.463-.265-.013-.138-.003-.279-.003-.418 0-.94.008-1.879-.005-2.818-.003-.215.054-.37.256-.415.69-.155 1.388-.25 2.037.13.593.348.627.808.554 1.384-.068.528-.51.916-1.042.986-.288.038-.58.033-.87.06-.069.006-.134.058-.202.114Zm0-1.813v1.12c.38-.057.722-.077 1.044-.168.31-.088.363-.379.357-.668-.006-.274-.16-.515-.429-.567-.312-.06-.636-.056-.972-.082v.366ZM25.964 21.123c.192-.018.361-.032.53-.053.16-.02.319-.05.48-.075.036-.416-.275-.633-.598-.598-.268.029-.53.106-.797.147-.092.014-.27-.007-.275-.034-.023-.139-.055-.37.014-.413.206-.131.453-.244.693-.268.387-.037.785-.055 1.156.143.339.18.498.46.506.828.01.513-.002 1.028.004 1.542.003.216-.088.373-.275.456-.61.27-1.234.31-1.858.049-.309-.13-.537-.517-.513-.823.034-.45.281-.753.688-.848.074-.018.148-.035.245-.053Zm-.077.626c-.215.234-.188.538.102.603.291.065.61.005.917-.011.033-.002.087-.081.09-.126.009-.22.004-.442.004-.698-.39.073-.736.138-1.113.232ZM19.573 19.817c.421-.02.786.057 1.09.338.182.17.26.375.26.62-.002.522-.013 1.045.005 1.567.008.254-.12.391-.316.477a2.417 2.417 0 0 1-1.578.123c-.47-.116-.77-.489-.76-.908.01-.482.334-.826.873-.907.36-.054.725-.087 1.088-.13-.026-.67-.453-.643-1.023-.578-.115.013-.223.079-.337.112-.136.04-.29.156-.37-.085-.064-.192.006-.413.2-.465.275-.074.561-.111.868-.164ZM19 21.998c-.014.19.072.352.247.367.297.026.6-.003.9-.021.035-.003.092-.08.094-.125.01-.222.004-.445.004-.662-.24.015-.45.001-.646.047-.228.052-.51.045-.6.394ZM11.492 19.933c.505-.183.991-.157 1.471.01.2.07.305.235.263.448-.031.154-.1.245-.311.168-.258-.095-.541-.132-.817-.16-.204-.022-.407.092-.401.298.003.11.198.252.336.315.312.143.647.235.965.368.332.14.37.472.372.759a.748.748 0 0 1-.5.734c-.55.206-1.104.207-1.642-.04-.347-.16-.374-.437-.147-.652.385.09.723.184 1.067.243.103.017.237-.038.33-.1.08-.054.175-.167.17-.25-.005-.096-.09-.235-.176-.272-.286-.122-.586-.213-.884-.305-.316-.098-.556-.266-.586-.626-.035-.405.05-.755.49-.938ZM14.533 21.23v.705c.001.395.25.576.627.472.133-.036.305-.207.399.055.089.247.004.404-.27.49a1.367 1.367 0 0 1-1.22-.188c-.25-.171-.25-.49-.256-.753-.02-.923-.007-1.846-.01-2.77 0-.137.041-.202.191-.211.468-.028.539.032.539.509v.435c.274 0 .523.003.771-.001.15-.003.271-.004.273.21.001.198-.032.351-.257.362-.25.012-.5.003-.787.003v.681ZM16.1 20.32c.173-.145.324-.333.509-.38a4.066 4.066 0 0 1 1.061-.112c.356.009.445.26.293.535l-1.014.134c-.148.019-.188.104-.186.25.007.626.005 1.252.002 1.878 0 .156.057.34-.222.334-.36-.008-.498-.084-.502-.362a43.465 43.465 0 0 1 0-1.435c.005-.275.034-.549.06-.843Z" fill="#0045E5"/><path d="M23.902 11.935c-.632 1.69-2.732 2.15-3.98.887-.164-.167-.318-.344-.485-.509-.264-.26-.587-.261-.85 0-.19.19-.369.393-.557.584-.865.88-2.172.987-3.144.263-.936-.699-1.197-1.988-.59-3.066.79-1.406 1.59-2.808 2.411-4.197a2.656 2.656 0 0 1 4.6-.015c.827 1.385 1.618 2.792 2.411 4.197.326.577.41 1.195.184 1.856ZM20.463 6.71c-.051-.09-.099-.183-.155-.27a1.533 1.533 0 0 0-2.607.02c-.1.162-.192.33-.287.496-.706 1.236-1.422 2.466-2.115 3.71-.338.606-.203 1.22.3 1.582.518.373 1.182.295 1.644-.191.179-.19.359-.378.542-.563a1.71 1.71 0 0 1 2.446-.007c.147.147.29.299.433.451.496.531 1.178.609 1.723.194.546-.414.632-.973.25-1.64-.716-1.251-1.435-2.5-2.174-3.782Z" fill="#EBE60B"/><path d="M20.474 6.726c.728 1.266 1.446 2.515 2.163 3.766.382.668.296 1.226-.25 1.64-.545.415-1.227.337-1.723-.194a19.003 19.003 0 0 0-.433-.45 1.71 1.71 0 0 0-2.446.006 37.91 37.91 0 0 0-.543.563c-.46.486-1.126.564-1.643.191-.503-.362-.638-.976-.3-1.582.693-1.243 1.409-2.474 2.115-3.71.095-.165.186-.333.287-.495a1.533 1.533 0 0 1 2.607-.022c.056.088.104.181.166.287Z" fill="#0146E4"/></g><defs><clipPath id="pi-astrapay-clip0_0_1"><path fill="#fff" d="M0 0h38v24H0z"/></clipPath></defs></svg>
